src/assets/mic-icon.svg

<svg width="23" height="30" viewBox="0 0 23 30" fill="none" xmlns="http://www.w3.org/2000/svg">
<path d="M11.4955 19.125C14.047 19.125 16.1051 17.0515 16.1051 14.5L16.1205 5.25C16.1205 2.69083 14.0547 0.625 11.4955 0.625C8.94407 0.625 6.87052 2.69083 6.87052 5.25V14.5C6.87052 17.0515 8.94407 19.125 11.4955 19.125ZM19.6664 14.5C19.6664 19.125 15.7582 22.3625 11.4955 22.3625C7.24052 22.3625 3.32469 19.125 3.32469 14.5H0.703857C0.703857 19.7648 4.89719 24.1123 9.95386 24.86V29.9167H13.0372V24.86C18.0939 24.1123 22.2872 19.7648 22.2872 14.5H19.6664Z" fill="#3E3E3E"/>
</svg>

<svg width="23" height="30" fill="none" xmlns="http://www.w3.org/2000/svg"><path d="M11.495 19.125a4.615 4.615 0 004.61-4.625l.015-9.25A4.619 4.619 0 0011.495.625 4.624 4.624 0 006.872 5.25v9.25a4.629 4.629 0 004.624 4.625zm8.171-4.625c0 4.625-3.908 7.863-8.17 7.863-4.255 0-8.171-3.238-8.171-7.863H.704c0 5.265 4.193 9.612 9.25 10.36v5.057h3.083V24.86c5.057-.748 9.25-5.095 9.25-10.36h-2.62z" fill="#3E3E3E"/></svg>
